X:102
T:????
M:4/4
L:1/8
K:D
AF|DFAd ~f3e|dcde fdAF|GAFG ~E3F|GAFG EFGE|FDAD FGAd|BGGF GABc|dffa gecd
|eddc d2:|
de|fddc dfaf|edcd efge|~f3a gfed|cAAG A2AG|FDAD FGAd|BGGF GABc|dffa gecd
|eddc d2:|


